symbols/web/desktop_windows/materialsymbolsoutlined/desktop_windows_wght200fill1_40px.svg

<svg xmlns="http://www.w3.org/2000/svg" height="40" width="40"><path d="M15.208 33.333v-1.416h3.375v-3.584H7.458q-1.041 0-1.75-.708Q5 26.917 5 25.917V9.083q0-1 .708-1.708.709-.708 1.75-.708h25.125q1 0 1.709.708.708.708.708 1.708v16.834q0 1-.708 1.708-.709.708-1.709.708H21.417v3.584h3.416v1.416Z"/></svg>

<svg xmlns="http://www.w3.org/2000/svg" height="40" width="40"><path d="M15.208 33.333V31.917H18.583V28.333H7.458Q6.417 28.333 5.708 27.625Q5 26.917 5 25.917V9.083Q5 8.083 5.708 7.375Q6.417 6.667 7.458 6.667H32.583Q33.583 6.667 34.292 7.375Q35 8.083 35 9.083V25.917Q35 26.917 34.292 27.625Q33.583 28.333 32.583 28.333H21.417V31.917H24.833V33.333Z"/></svg>
